X:115
T: DER HIMMEL IST SO TRUEBE
N: E0709
O: Europa, Mitteleuropa, Deutschland, Hannover, Dransfeld, Imbsen
R: Liebes - Lied, Leid, Klage
M: 3/4
L: 1/8
K: A
E2 | A2E2EE | EDD2
EA | G3FED | C4
E2 | c2B2AG | GFF2
BA | G3EFG | A2z2

